!!!!SEGMENT: Ric3002-Ne_vous_chaille_mon_cueur.krn
!!!id: Ric3002
!!!AGN: Chanson
!!!SCT: Elzinga (1999)
!!!voices: 5
!!!COM: Jean Richafort
!!!OTL: Ne vous chaille, mon cueur
**kern	**kern	**kern	**kern	**kern
*part5	*part4	*part3	*part2	*part1
*staff5	*staff4	*staff3	*staff2	*staff1
*I"Bassus	*I"Tenor II	*I"Tenor I	*I"Altus	*I"Superius
*I'B	*I'T. II	*I'T. I	*I'A	*I'S
*clefF4	*clefGv2	*clefGv2	*clefGv2	*clefGv2
*k[]	*k[]	*k[]	*k[]	*k[]
*C:	*C:	*C:	*C:	*C:
*M2/1	*M2/1	*M2/1	*M2/1	*M2/1
*met(C|)	*met(C|)	*met(C|)	*met(C|)	*met(C|)
=1	=1	=1	=1	=1
0r	0r	0r	1A	1r
.	.	.	[1c	1A
=2	=2	=2	=2	=2
0r	1A	1r	1c]	0c
.	[1c	1A	1A	.
=3	=3	=3	=3	=3
1A	1c]	0c	0F	1A
[1c	1A	.	.	1F
=4	=4	=4	=4	=4
1c]	1F	1A	1A	2r
.	.	.	.	2f
1A	2r	1F	[1A	1f
.	2A	.	.	.
=5	=5	=5	=5	=5
1F	0c	2r	1A]	1f
.	.	2F	.	.
1C	.	2G	1G	1e
.	.	2E	.	.
=6	=6	=6	=6	=6
1D	2A	2.F	1.F	2d
.	2F	.	.	2.f
.	.	4E	.	.
1BB-X	[1B-i	1D	.	.
.	.	.	.	4e
.	.	.	[2G	[2d
=7	=7	=7	=7	=7
2GG	2B-]	1r	4G]	2d]
.	.	.	4F	.
2BB	2G	.	4E	4c
.	.	.	4D	4B
1AA	[1A	2r	1E	1c
.	.	2C	.	.
=8	=8	=8	=8	=8
2r	1A]	1F	0D	[0d
2A	.	.	.	.
2B-i	2r	4F	.	.
.	.	4E	.	.
2A	2D	4F	.	.
.	.	4G	.	.
=9	=9	=9	=9	=9
2F	4D	4A	1D	0d]
.	4E	4G	.	.
2.A	4F	4F	.	.
.	4G	4E	.	.
.	1A	2D	1F	.
4G	.	.	.	.
2F	.	2d	.	.
=10	=10	=10	=10	=10
1E	1r	2d	1G	1r
.	.	2c	.	.
2D	2r	2d	[1A	2r
2AA	2C	2c	.	2e
=11	=11	=11	=11	=11
2D	2D	2A	1A]	2f
2C	2E	2c	.	2e
2AA	2E	2.c	1A	2c
2AA	2E	.	.	[2e
.	.	4d	.	.
=12	=12	=12	=12	=12
2C	2E	4e	1A	2e]
.	.	4c	.	.
2D	2F	2f	.	4d
.	.	.	.	4c
1E	4G	[1e	1G	1B
.	4F	.	.	.
.	4E	.	.	.
.	4D	.	.	.
=13	=13	=13	=13	=13
0AA	0E	1e]	0c	1A
.	.	2r	.	2r
.	.	2E	.	2a
=14	=14	=14	=14	=14
0r	0r	4F	4c	1.a
.	.	4G	4B	.
.	.	4A	4A	.
.	.	4B	4G	.
.	.	2c	2F	.
.	.	2C	2E	[2g
=15	=15	=15	=15	=15
0r	1r	2D	2F	2g]
.	.	2F	2A	1f
.	1c	1C	1G	.
.	.	.	.	2e
=16	=16	=16	=16	=16
1r	2c	0r	0F	0f
.	2c	.	.	.
1A	2c	.	.	.
.	2c	.	.	.
=17	=17	=17	=17	=17
1A	2d	1r	1F	0r
.	2d	.	.	.
1G	2e	1C	1E	.
.	[2c	.	.	.
=18	=18	=18	=18	=18
1F	2c]	1F	0D	1f
.	4B	.	.	.
.	4A	.	.	.
1r	1B	1F	.	2f
.	.	.	.	2f
=19	=19	=19	=19	=19
1AA	1c	1.A	2.C	2e
.	.	.	.	2e
.	.	.	4D	.
1AA	2r	.	2E	2c
.	2C	2F	[2F	4B
.	.	.	.	4A
=20	=20	=20	=20	=20
1GG	2C	2G	2F]	2B
.	2BB	2G	2E	2B
2FF	2C	2A	2F	2A
2BB-i	2D	2B-i	2G	[2d
=21	=21	=21	=21	=21
1AA	1E	4c	1A	2d]
.	.	4B	.	.
.	.	4A	.	2c
.	.	4G	.	.
1D	2D	1F	4A	2d
.	.	.	4G	.
.	[2F	.	4F	2d
.	.	.	4E	.
=22	=22	=22	=22	=22
4D	4F]	0r	2F	1.d
4C	4E	.	.	.
4BB	4D	.	2.G	.
4AA	4C	.	.	.
2BB	2D	.	.	.
.	.	.	4F	.
2C	[2G	.	4E	[2e
.	.	.	4D	.
=23	=23	=23	=23	=23
1AA	2G]	1r	1C	2e]
.	2F	.	.	4d
.	.	.	.	4c
1GG	2.G	2r	2D	1B
.	.	2G	2E	.
.	8FL	.	.	.
.	8EJ	.	.	.
=24	=24	=24	=24	=24
1r	2D	2A	2F	0r
.	1d	2B	2G	.
2r	.	1G	1E	.
[2G	2c#i	.	.	.
=25	=25	=25	=25	=25
2G]	0d	0A	0D	0d
4F	.	.	.	.
4E	.	.	.	.
2F	.	.	.	.
2G	.	.	.	.
=26	=26	=26	=26	=26
2.A	0r	2r	1r	1c
.	.	2F	.	.
4G	.	.	.	.
4F	.	2F	1A	1c
4E	.	.	.	.
[2F	.	2F	.	.
=27	=27	=27	=27	=27
4F]	0r	2D	2A	1.f
4E	.	.	.	.
4D	.	1d	2.B-i	.
4C	.	.	.	.
1D	.	.	.	.
.	.	.	4A	.
.	.	2B	4G	4e
.	.	.	4F	4d
=28	=28	=28	=28	=28
2C	1r	2.c	1G	1e
2C	.	.	.	.
.	.	4B	.	.
1D	2r	1A	[1F	2r
.	2D	.	.	2A
=29	=29	=29	=29	=29
2D	1A	2r	1F]	1d
1D	.	2F	.	.
.	2A	2F	1r	2d
2D	[2A	2F	.	[2d
=30	=30	=30	=30	=30
4D	2A]	2D	1F	2d]
4C	.	.	.	.
4BB	2A	2D	.	2d
4AA	.	.	.	.
1GG	1B	2D	1G	1d
.	.	[2G	.	.
=31	=31	=31	=31	=31
[0C	0c	4G]	2G	0e
.	.	4F	.	.
.	.	4E	1G	.
.	.	4D	.	.
.	.	[1E	.	.
.	.	.	2G	.
=32	=32	=32	=32	=32
0C]	1c	1E]	4G	2r
.	.	.	4F	.
.	.	.	4E	2.g
.	.	.	4D	.
.	2c	2r	2C	.
.	.	.	.	4f
.	4B	2c	2G	[2e
.	4A	.	.	.
=33	=33	=33	=33	=33
0r	2G	2B	2E	4e]
.	.	.	.	4d
.	2A	1A	2F	1c
.	1F	.	1D	.
.	.	4G	.	2B
.	.	4F	.	.
=34	=34	=34	=34	=34
0r	0G	2E	0C	[0c
.	.	1F	.	.
.	.	2E	.	.
=35	=35	=35	=35	=35
1A	1F	1F	0r	0c]
[1c	2r	2r	.	.
.	2F	2A	.	.
=36	=36	=36	=36	=36
1c]	2F	1c	1C	0r
.	2E	.	.	.
1A	1F	1c	1F	.
=37	=37	=37	=37	=37
1F	1c	1A	1A	2r
.	.	.	.	2f
1C	1c	1r	1G	2f
.	.	.	.	2e
=38	=38	=38	=38	=38
1D	1A	1d	0F	2.f
.	.	.	.	4e
1BB	2r	2.d	.	4d
.	.	.	.	4c
.	2D	.	.	2f
.	.	4c	.	.
=39	=39	=39	=39	=39
2GG	4G	2B	1G	2e
.	4F	.	.	.
2BB	4E	2G	.	2d
.	4D	.	.	.
1AA	1E	2r	1A	2d
.	.	2C	.	2c#i
=40	=40	=40	=40	=40
1D	4D	1F	4A	1d
.	4E	.	4G	.
.	4F	.	4F	.
.	4G	.	4E	.
2r	4A	2D	2F	2r
.	4B	.	.	.
2AA	2c	2r	2E	2c
=41	=41	=41	=41	=41
1BB	2F	2r	4D	2.d
.	.	.	4E	.
.	2D	2B	4F	.
.	.	.	4G	4e
2AA	2C	2c	4A	2f
.	.	.	4F	.
2GG	2E	2B	2G	[2e
=42	=42	=42	=42	=42
1D	2F	0A	2D	2e]
.	2D	.	2F	1d
2AA	1A	.	1E	.
2AA	.	.	.	2c#i
=43	=43	=43	=43	=43
1BB	2r	2r	[0Dl	[0dl
.	2D	2F	.	.
1GG	1G	1B-i	.	.
=44	=44	=44	=44	=44
00Dl	00Fl	00Al	00D]	00d]
==	==	==	==	==
*-	*-	*-	*-	*-
!!!system-decoration: [*]
!!!RDF**kern: i = editorial accidental
!!!RDF**kern: l = terminal long
!!!ENC: Benjamin Ory
!!!END: 2021/1/7
!!!EED: Benjamin Ory
!!!EEV: 2021/05/02
!!!YEC: Copyright 2021 Benjamin Ory, All Rights Reserved
!!!ONB: Translated from MusicXML on 2021/05/02
